frontend/public/svg/interface/pen-tool.svg

<svg width="155" height="153" viewBox="0 0 155 153" fill="none" xmlns="http://www.w3.org/2000/svg">
<g clip-path="url(#clip0)">
<path d="M153.697 1.19123C151.441 -0.434315 149.018 0.0195515 146.884 0.416577C146.409 0.505665 145.936 0.594724 145.468 0.659925C125.613 3.40954 106.067 8.02965 87.0922 14.4577C75.3992 18.4506 63.9207 22.2503 52.9783 25.7519C48.8196 27.0818 46.1385 29.5124 44.5342 33.4C39.5958 45.3611 36.638 55.6986 35.2163 65.9309C35.124 66.5952 35.0499 67.264 34.9752 67.9419C34.8183 69.8321 34.4921 71.7049 34.0005 73.5377C33.5456 73.0987 33.1012 72.6732 32.6724 72.2588C31.2805 70.9147 29.9659 69.6462 28.6156 68.4583C26.0061 66.164 24.2115 66.0052 21.229 67.8128C20.218 68.3867 19.2773 69.0748 18.4259 69.8637C13.184 75.018 7.94998 80.2238 2.86995 85.3374C2.0203 86.0791 1.39553 87.0417 1.06621 88.1172C0.736893 89.1921 0.71597 90.3373 1.00561 91.4238C1.02824 91.5336 1.07862 91.6349 1.15188 91.7201C2.28121 93.0377 3.42994 94.4244 4.60801 95.8447C7.3371 99.1371 10.1552 102.535 13.258 105.744C22.9398 115.763 33.6394 126.576 46.9211 139.774C50.0505 142.884 53.3903 145.878 56.6204 148.772C58.109 150.107 59.5977 151.442 61.0721 152.792C61.196 152.905 61.3586 152.968 61.527 152.967H65.5308C65.6629 152.967 65.7921 152.929 65.9019 152.856C66.0117 152.783 66.0975 152.679 66.1481 152.558C66.2066 152.416 66.2547 152.261 66.3015 152.106C66.3372 151.956 66.3918 151.812 66.4646 151.676C69.1703 149.314 71.8825 146.958 74.6012 144.61C77.9106 141.744 81.2155 138.871 84.5151 135.991C86.2923 134.434 88.1422 132.441 88.3846 129.467C88.3885 129.419 88.3872 129.37 88.3807 129.322C88.0096 126.675 86.2455 125.052 84.5391 123.481C83.2525 122.295 82.0303 121.169 81.3675 119.636L81.6859 119.474C82.1862 119.206 82.7028 118.968 83.2331 118.764C86.4424 117.62 89.6562 116.486 92.8746 115.363C99.8033 112.933 106.968 110.42 113.951 107.771C118.045 106.218 121.937 104.01 125.699 101.876L125.899 101.763C128.933 100.042 130.838 97.19 131.564 93.2889C132.149 90.1417 132.897 86.9081 133.789 83.6789C141.891 54.3559 148.125 31.9248 154.002 10.9503C155.054 7.2008 155.031 4.28159 153.931 1.48627C153.883 1.36768 153.801 1.26525 153.697 1.19123ZM90.2124 76.0457C88.4586 76.5867 86.5613 76.4337 84.9186 75.6177C83.2753 74.8017 82.0134 73.3859 81.3967 71.6674C79.8931 67.8754 81.3415 64.3957 85.0863 62.8025C87.035 61.9822 89.1059 61.4832 91.2164 61.3254C91.4789 61.306 91.7329 61.2964 91.9786 61.2964C93.3015 61.2135 94.6063 61.6393 95.6219 62.4855C96.6239 63.4119 97.1275 64.878 97.1203 66.8431C97.1054 70.8243 94.0066 74.9508 90.2118 76.0483L90.2124 76.0457ZM132.81 16.9147C130.688 18.9689 128.683 20.9088 126.759 22.9998C124.744 25.1948 122.632 27.3723 120.589 29.4801C117.78 32.3813 114.871 35.3813 112.162 38.4691C108.926 42.1534 105.933 45.9215 102.764 49.9111C101.473 51.5354 100.171 53.1752 98.8397 54.824L98.1554 54.6192C97.3263 54.3706 96.466 54.1124 95.6083 53.8877C90.9051 52.7146 85.9446 53.1033 81.4845 54.9943C74.3849 57.8103 70.657 64.1459 71.7558 71.5293C72.1431 74.3601 73.2133 77.056 74.8755 79.3865C76.5376 81.7177 78.743 83.615 81.3025 84.9165C83.721 86.1037 86.3956 86.6834 89.0916 86.6046C91.7882 86.5259 94.4237 85.7912 96.7675 84.4646C100.465 82.5576 103.47 79.5486 105.359 75.8591C108.304 70.018 108.072 64.8909 104.648 60.1847C104.55 60.0498 104.446 59.9194 104.341 59.789C103.995 59.4059 103.738 58.9515 103.59 58.4584C103.557 58.3674 103.525 58.2777 103.488 58.188C103.488 58.1499 103.488 58.1111 103.483 58.073C103.475 57.9921 103.475 57.9107 103.483 57.8297C103.506 57.7291 103.553 57.6353 103.62 57.5559C116.658 44.6394 129.703 31.7292 143.257 18.3143C143.16 19.015 143.014 19.7083 142.821 20.3892C141.01 26.2742 139.19 32.1568 137.363 38.0371C134.4 47.5876 131.337 57.4642 128.382 67.1962C126.673 72.8256 125.044 78.8571 123.541 85.1243C123.126 87.0869 122.258 88.9261 121.005 90.4981C119.752 92.07 118.148 93.3308 116.32 94.181C112.968 95.8421 109.833 97.3443 106.739 98.7685C103.749 100.146 100.631 101.409 97.6181 102.632C90.0805 105.688 82.2922 108.846 75.5785 114.123L40.6478 79.5808C40.6894 79.1141 40.7129 78.6719 40.737 78.2503C40.7381 77.4014 40.8545 76.5563 41.0831 75.7384C44.8441 64.9316 48.7235 53.9446 52.4753 43.3198L55.4781 34.8138C60.7849 32.9843 66.1488 31.0825 71.3387 29.2426C93.5387 21.3705 116.474 13.2376 140.821 8.69536C138.165 11.7321 135.448 14.3608 132.809 16.914L132.81 16.9147ZM77.4122 128.884L63.0662 142.609C54.0341 135.572 15.2925 97.8601 9.8447 90.8015C13.1996 85.7828 20.0041 78.3058 24.1166 75.1141L24.2226 75.1787C24.5595 75.3679 24.8741 75.5938 25.1607 75.852C40.4425 90.9629 55.714 106.083 70.9754 121.212L71.7695 121.993C73.8481 124.033 75.9944 126.139 77.4116 128.884H77.4122Z" fill="black"/>
</g>
<defs>
<clipPath id="clip0">
<rect width="154" height="153" fill="white" transform="translate(0.777344)"/>
</clipPath>
</defs>
</svg>

<svg xmlns="http://www.w3.org/2000/svg" width="155" height="153" fill="none" viewBox="0 0 155 153"><g clip-path="url(#a)"><path fill="#000" d="M153.697 1.191c-2.256-1.625-4.679-1.171-6.813-.774-.475.089-.948.178-1.416.243a318 318 0 0 0-58.376 13.798 1867 1867 0 0 1-34.114 11.294c-4.158 1.33-6.84 3.76-8.444 7.648-4.938 11.961-7.896 22.299-9.318 32.53a72 72 0 0 0-.24 2.012A31.7 31.7 0 0 1 34 73.538l-1.329-1.28c-1.391-1.343-2.706-2.612-4.056-3.8-2.61-2.294-4.404-2.453-7.387-.645a15 15 0 0 0-2.803 2.05A1881 1881 0 0 0 2.87 85.338a6.04 6.04 0 0 0-1.804 2.78 6 6 0 0 0-.06 3.307q.035.166.146.296c1.13 1.318 2.278 2.704 3.456 4.125 2.73 3.292 5.547 6.69 8.65 9.899 9.682 10.019 20.381 20.832 33.663 34.03 3.13 3.11 6.47 6.104 9.7 8.998 1.488 1.335 2.977 2.67 4.451 4.02a.67.67 0 0 0 .455.175h4.004a.67.67 0 0 0 .617-.409 5 5 0 0 0 .154-.452q.053-.226.163-.43 4.058-3.543 8.136-7.066 4.965-4.299 9.914-8.619c1.777-1.557 3.627-3.55 3.87-6.524a.7.7 0 0 0-.004-.145c-.371-2.647-2.135-4.27-3.842-5.841-1.287-1.186-2.509-2.312-3.171-3.845l.318-.162a14 14 0 0 1 1.547-.71q4.814-1.716 9.642-3.401c6.928-2.43 14.093-4.943 21.076-7.592 4.094-1.553 7.986-3.761 11.748-5.895l.2-.113c3.034-1.721 4.939-4.573 5.665-8.474a116 116 0 0 1 2.225-9.61 20578 20578 0 0 1 20.213-72.729c1.052-3.75 1.029-6.668-.071-9.464a.67.67 0 0 0-.234-.295M90.212 76.046a7.16 7.16 0 0 1-5.293-.428 7.1 7.1 0 0 1-3.522-3.95c-1.504-3.793-.056-7.272 3.69-8.866a19.6 19.6 0 0 1 6.13-1.477q.393-.029.762-.029a5.2 5.2 0 0 1 3.643 1.19c1.002.926 1.505 2.392 1.498 4.357-.015 3.981-3.113 8.108-6.908 9.205zm42.598-59.131c-2.122 2.054-4.127 3.994-6.051 6.085-2.015 2.195-4.127 4.372-6.17 6.48-2.809 2.901-5.718 5.901-8.427 8.99-3.236 3.683-6.229 7.452-9.398 11.441-1.291 1.624-2.593 3.264-3.924 4.913l-.685-.205c-.829-.248-1.689-.507-2.547-.731a22.34 22.34 0 0 0-14.124 1.106c-7.1 2.816-10.827 9.152-9.728 16.535a17.65 17.65 0 0 0 3.12 7.858 17.8 17.8 0 0 0 6.426 5.53 16.58 16.58 0 0 0 15.465-.452 19.9 19.9 0 0 0 8.592-8.606c2.945-5.841 2.713-10.968-.711-15.674a10 10 0 0 0-.307-.396 3.5 3.5 0 0 1-.751-1.33q-.048-.137-.102-.271.001-.057-.005-.115a1.2 1.2 0 0 1 0-.243.65.65 0 0 1 .137-.274c13.038-12.917 26.083-25.827 39.637-39.242q-.146 1.053-.436 2.075a6822 6822 0 0 1-5.458 17.648c-2.963 9.55-6.026 19.427-8.981 29.16a315 315 0 0 0-4.841 17.927 12.9 12.9 0 0 1-2.536 5.374 13 13 0 0 1-4.685 3.683 368 368 0 0 1-9.581 4.588c-2.99 1.377-6.108 2.64-9.12 3.863-7.538 3.056-15.327 6.214-22.04 11.491L40.648 79.581c.041-.467.065-.91.089-1.33a9.4 9.4 0 0 1 .346-2.513A7619 7619 0 0 1 52.475 43.32l3.003-8.506c5.307-1.83 10.67-3.732 15.86-5.571 22.2-7.872 45.136-16.005 69.483-20.548-2.656 3.037-5.373 5.666-8.012 8.219zM77.412 128.884l-14.346 13.725c-9.032-7.037-47.774-44.749-53.221-51.808 3.355-5.018 10.16-12.495 14.272-15.687l.106.065q.506.285.938.673a50909 50909 0 0 1 45.814 45.36l.794.781c2.08 2.04 4.225 4.146 5.643 6.891"/></g><defs><clipPath id="a"><path fill="#fff" d="M.777 0h154v153h-154z"/></clipPath></defs></svg>
